img/les3.svg

<svg width="100" height="100" fill="none" xmlns="http://www.w3.org/2000/svg"><path fill-rule="evenodd" clip-rule="evenodd" d="M19.8726 61.7521c9.7138 4.3516 23.3737-4.7609 29.0064-17.3345 5.6327-12.5736 7.7799-26.0369-1.9339-30.3885-9.7139-4.35162-24.9032 6.0428-30.5359 18.6164-5.6327 12.5736-6.2505 24.755 3.4634 29.1066zm11.4088-18.5413c3.0721 0 5.5625-2.6303 5.5625-5.875s-2.4904-5.875-5.5625-5.875-5.5625 2.6303-5.5625 5.875 2.4904 5.875 5.5625 5.875z" fill="#F4003B"/><mask id="a" fill="#fff"><path d="M25.8119 33.3356c2.5213-3.7918 7.006-5.21 10.0169-3.1677 3.011 2.0422 3.408 6.7717.8867 10.5635-2.5212 3.7918-7.006 5.21-10.0169 3.1677-3.0109-2.0423-3.4079-6.7717-.8867-10.5635z"/></mask><path d="M25.8119 33.3356c2.5213-3.7918 7.006-5.21 10.0169-3.1677 3.011 2.0422 3.408 6.7717.8867 10.5635-2.5212 3.7918-7.006 5.21-10.0169 3.1677-3.0109-2.0423-3.4079-6.7717-.8867-10.5635z" stroke="#000" stroke-width="6" mask="url(#a)"/><path d="M34.6156 15.9699c19.8019-7.49996 23.5976 13 12.8698 30.0002-11.6967 18.5355-34.157 22.4998-35.6433 4.5004" stroke="#000" stroke-width="3"/><path d="M87.0752 50.9699c0 21.001-16.8521 38-37.6089 38s-37.6089-16.999-37.6089-38c0-21.0009 16.8521-38 37.6089-38s37.6089 16.9991 37.6089 38z" stroke="#000" stroke-width="3"/><path d="M64.105 85.3441s-5.533-5.9592-1.1646-13.6846c4.3684-7.7253-5.0163-11.9924-5.0163-11.9924M35.9152 68.4699s-3.7185 16.8319 7.1145 19.9143M62.5336 72.8658c-1.6047.7178-2.7001 2.5731-9-2M36.3765 75.4204c2.9959-.6024 6.6809.9288 9.5637-11.9504M86.708 59.7919s-8.979.3489-9.3457-11.4654c-.3667-11.8142-12.0931-5.8008-12.0931-5.8008M70.7527 29.5605c1.4463 1.461 3.5824 1.781 3.0407 11.1824" stroke="#000" stroke-width="3"/></svg>

<svg width="100" height="100" viewBox="0 0 100 100" fill="none" xmlns="http://www.w3.org/2000/svg">
<path fill-rule="evenodd" clip-rule="evenodd" d="M19.8726 61.7521C29.5864 66.1037 43.2463 56.9912 48.879 44.4176C54.5117 31.844 56.6589 18.3807 46.9451 14.0291C37.2312 9.67748 22.0419 20.0719 16.4092 32.6455C10.7765 45.2191 10.1587 57.4005 19.8726 61.7521ZM31.2814 43.2108C34.3535 43.2108 36.8439 40.5805 36.8439 37.3358C36.8439 34.0911 34.3535 31.4608 31.2814 31.4608C28.2093 31.4608 25.7189 34.0911 25.7189 37.3358C25.7189 40.5805 28.2093 43.2108 31.2814 43.2108Z" fill="#F4003B"/>
<mask id="path-2-inside-1" fill="white">
<path d="M25.8119 33.3356C28.3332 29.5438 32.8179 28.1256 35.8288 30.1679C38.8398 32.2101 39.2368 36.9396 36.7155 40.7314C34.1943 44.5232 29.7095 45.9414 26.6986 43.8991C23.6877 41.8568 23.2907 37.1274 25.8119 33.3356Z"/>
</mask>
<path d="M25.8119 33.3356C28.3332 29.5438 32.8179 28.1256 35.8288 30.1679C38.8398 32.2101 39.2368 36.9396 36.7155 40.7314C34.1943 44.5232 29.7095 45.9414 26.6986 43.8991C23.6877 41.8568 23.2907 37.1274 25.8119 33.3356Z" stroke="black" stroke-width="6" mask="url(#path-2-inside-1)"/>
<path d="M34.6156 15.9699C54.4175 8.46994 58.2132 28.9699 47.4854 45.9701C35.7887 64.5056 13.3284 68.4699 11.8421 50.4705" stroke="black" stroke-width="3"/>
<path d="M87.0752 50.9699C87.0752 71.9709 70.2231 88.9699 49.4663 88.9699C28.7095 88.9699 11.8574 71.9709 11.8574 50.9699C11.8574 29.969 28.7095 12.9699 49.4663 12.9699C70.2231 12.9699 87.0752 29.969 87.0752 50.9699Z" stroke="black" stroke-width="3"/>
<path d="M64.105 85.3441C64.105 85.3441 58.572 79.3849 62.9404 71.6595C67.3088 63.9342 57.9241 59.6671 57.9241 59.6671" stroke="black" stroke-width="3"/>
<path d="M35.9152 68.4699C35.9152 68.4699 32.1967 85.3018 43.0297 88.3842" stroke="black" stroke-width="3"/>
<path d="M62.5336 72.8658C60.9289 73.5836 59.8335 75.4389 53.5336 70.8658" stroke="black" stroke-width="3"/>
<path d="M36.3765 75.4204C39.3724 74.818 43.0574 76.3492 45.9402 63.47" stroke="black" stroke-width="3"/>
<path d="M86.708 59.7919C86.708 59.7919 77.729 60.1408 77.3623 48.3265C76.9956 36.5123 65.2692 42.5257 65.2692 42.5257" stroke="black" stroke-width="3"/>
<path d="M70.7527 29.5605C72.199 31.0215 74.3351 31.3415 73.7934 40.7429" stroke="black" stroke-width="3"/>
</svg>
